Sources/FrostedUI/Resources/Icons.xcassets/compass32.imageset/compass-32.svg

<svg width="32" height="32" viewBox="0 0 32 32" fill="none" xmlns="http://www.w3.org/2000/svg" data-fui-icon="true">
  <path
    d="M16 1.91699C23.7777 1.91719 30.0838 8.22226 30.084 16C30.0838 23.7777 23.7777 30.0838 16 30.084C8.22226 30.0838 1.91719 23.7777 1.91699 16C1.91717 8.22225 8.22225 1.91717 16 1.91699ZM16 3.41699C9.05067 3.41717 3.41717 9.05067 3.41699 16C3.41719 22.9493 9.05069 28.5838 16 28.584C22.9493 28.5838 28.5838 22.9493 28.584 16C28.5838 9.05069 22.9493 3.41719 16 3.41699ZM20.3223 9.41992C21.7328 8.88488 23.114 10.2662 22.5791 11.6768L20.1797 18.0039C19.7991 19.007 19.007 19.7991 18.0039 20.1797L11.6768 22.5791C10.2662 23.114 8.88488 21.7328 9.41992 20.3223L11.8193 13.9961C12.1999 12.9928 12.9928 12.1999 13.9961 11.8193L20.3223 9.41992ZM20.8545 10.8223L14.5283 13.2217C13.9264 13.45 13.45 13.9264 13.2217 14.5283L10.8223 20.8545C10.7459 21.0559 10.9431 21.2528 11.1445 21.1768L17.4717 18.7773C18.0736 18.549 18.549 18.0736 18.7773 17.4717L21.1768 11.1445C21.2528 10.9431 21.0559 10.7459 20.8545 10.8223Z"
    fill="currentColor"
  />
</svg>

<svg xmlns="http://www.w3.org/2000/svg" width="32" height="32" fill="none" data-fui-icon="true" viewBox="0 0 32 32"><path fill="currentColor" d="M16 1.917c7.778 0 14.084 6.305 14.084 14.083S23.778 30.084 16 30.084 1.917 23.778 1.917 16 8.222 1.917 16 1.917m0 1.5C9.05 3.417 3.417 9.051 3.417 16c0 6.95 5.634 12.584 12.583 12.584 6.95 0 12.584-5.635 12.584-12.584 0-6.95-5.635-12.583-12.584-12.583m4.322 6.003c1.41-.535 2.792.846 2.257 2.257l-2.4 6.327a3.75 3.75 0 0 1-2.175 2.176l-6.327 2.4c-1.41.534-2.792-.847-2.257-2.258l2.4-6.326a3.75 3.75 0 0 1 2.176-2.177zm.533 1.402-6.327 2.4a2.25 2.25 0 0 0-1.306 1.306l-2.4 6.327a.25.25 0 0 0 .323.322l6.327-2.4a2.25 2.25 0 0 0 1.305-1.305l2.4-6.328a.25.25 0 0 0-.322-.322"/></svg>
